X: 6704
T: Ceo Sa Cnoc
R: reel
M: 4/4
K: Adorian
|:eA (3AAA efge|dG (3GGG BABd|eA (3AAA efge|dBGB BA (3AAA:|
ea (3aaa agag|eaag egdg|ea (3aaa agaf|gedB GABd|
ea (3aaa b2 ag|eaaf g3 b|agbg abgd|egdg BA A2|

